icon-svg/extension-us.svg

<svg xmlns="http://www.w3.org/2000/svg" viewBox="0 0 24 24"><path fill="#44739e" d="M3.074 6.078c-.017-.185-.406-.277-.611-.64a.36.36 0 0 1-.023-.258c.049-.189.275-.284.376-.315.585-.182 1.146-.383 1.737-.546a5.1 5.1 0 0 0 1.803-.74c.428-.319.95-1.298.856-1.452-.054-.088-.428-.009-.449.166a1.19 1.19 0 0 1-.552.863 4 4 0 0 1-1.748.799 10 10 0 0 0-1.983.633.85.85 0 0 0-.478.634.6.6 0 0 0 .07.331 1.5 1.5 0 0 0 .77.737Zm2.125 1.011.896-.532-.105-.073Zm-.39.421.443.335a.125.125 0 0 0 .141.006l1.313-.815a.12.12 0 0 0 0-.2l-.434-.299a.13.13 0 0 0-.135 0l-.047.028.366.253.079.242-1.159.712-.508-.376c-.058-.044.025-.079.088-.116l.238-.183-.375.223a.12.12 0 0 0-.01.19m.71-2.595L3.111 6.469a.462.462 0 0 0-.032.755l15.723 12.164a.46.46 0 0 0 .6-.027l2.283-2.121a.464.464 0 0 0-.039-.711L6.045 4.933a.46.46 0 0 0-.526-.018m14.069 10.917.94.719-.3.284-.95-.737Zm-.554.471.94.719-.3.286-.95-.738Zm-.626.532.94.72-.3.285-.952-.738Zm-.626.556.94.719-.3.284-.952-.737Zm-.978-2.63-.661.544-.162-.132.676-.52Zm-.811-.611.147.108-.661.543-.162-.133Zm-3.565-2.664-.662.543-.161-.133.677-.518Zm-.806-.611.147.108-.661.543-.162-.133ZM8.479 8.528l-.662.544-.161-.134.676-.518Zm-.659-.499-.661.543-.162-.133.676-.518ZM6.563 6.147l.676.479a.193.193 0 0 1-.008.318L5.193 8.242a.19.19 0 0 1-.22-.01l-.689-.528a.193.193 0 0 1 .017-.316l2.051-1.249a.2.2 0 0 1 .211.008m12.891 13.381a.55.55 0 0 1-.709.032L2.728 7.17l-.006 2.097 16.19 12.642 2.713-2.596.375-2.148Z"/></svg>

<?xml version="1.0" encoding="UTF-8"?>
<svg width="24px" fill="#44739e" height="24px" viewBox="0 0 24 24" version="1.1" xmlns="http://www.w3.org/2000/svg" xmlns:xlink="http://www.w3.org/1999/xlink">
            <path d="M 3.063,6.072 C 3.046,5.886 2.656,5.794 2.451,5.431 A 0.355,0.355 0 0 1 2.428,5.172 C 2.477,4.983 2.703,4.888 2.804,4.857 3.39,4.675 3.952,4.473 4.544,4.31 A 5.09,5.09 0 0 0 6.349,3.569 C 6.778,3.25 7.301,2.269 7.206,2.115 7.152,2.027 6.778,2.106 6.757,2.281 A 1.189,1.189 0 0 1 6.204,3.146 3.966,3.966 0 0 1 4.454,3.946 10.156,10.156 0 0 0 2.468,4.58 0.851,0.851 0 0 0 1.989,5.214 0.614,0.614 0 0 0 2.059,5.546 1.509,1.509 0 0 0 2.83,6.284 Z M 5.191,7.084 6.088,6.551 5.983,6.478 Z M 4.8,7.506 5.244,7.841 A 0.125,0.125 0 0 0 5.385,7.847 L 6.7,7.031 a 0.12,0.12 0 0 0 0,-0.2 l -0.435,-0.3 a 0.127,0.127 0 0 0 -0.135,0 L 6.083,6.559 6.449,6.813 6.528,7.055 5.368,7.768 4.859,7.391 C 4.801,7.347 4.884,7.312 4.947,7.275 L 5.186,7.092 4.81,7.315 A 0.119,0.119 0 0 0 4.8,7.506 Z M 5.511,4.907 3.1,6.463 A 0.463,0.463 0 0 0 3.068,7.219 L 18.813,19.4 a 0.464,0.464 0 0 0 0.6,-0.027 L 21.7,17.249 A 0.465,0.465 0 0 0 21.661,16.537 L 6.038,4.925 A 0.464,0.464 0 0 0 5.511,4.907 Z m 14.089,10.932 0.941,0.72 -0.3,0.285 -0.952,-0.738 z m -0.555,0.472 0.941,0.72 -0.3,0.286 -0.952,-0.739 z m -0.627,0.533 0.941,0.721 -0.3,0.285 -0.953,-0.739 z m -0.627,0.556 0.941,0.72 -0.3,0.285 -0.953,-0.738 z m -0.979,-2.633 -0.662,0.545 -0.162,-0.133 0.677,-0.52 z M 16,14.155 l 0.147,0.108 -0.662,0.544 -0.162,-0.133 z m -3.57,-2.668 -0.663,0.544 -0.161,-0.133 0.677,-0.519 z m -0.807,-0.612 0.147,0.108 -0.662,0.544 -0.162,-0.133 z M 8.475,8.525 7.812,9.07 7.651,8.936 8.328,8.417 Z M 7.815,8.025 7.153,8.569 6.991,8.436 7.668,7.917 Z M 6.556,6.141 7.233,6.62 A 0.193,0.193 0 0 1 7.225,6.939 l -2.04,1.3 A 0.191,0.191 0 0 1 4.964,8.229 L 4.274,7.7 A 0.193,0.193 0 0 1 4.291,7.383 L 6.345,6.133 A 0.2,0.2 0 0 1 6.556,6.141 Z M 19.465,19.54 a 0.55,0.55 0 0 1 -0.71,0.032 L 2.716,7.165 l -0.006,2.1 16.213,12.66 2.716,-2.6 0.376,-2.151 z"/>

</svg>
